qucs/bitmaps/svg/polarsmith.svg

<?xml version="1.0" encoding="UTF-8" standalone="no"?>
<!-- Created with Inkscape (http://www.inkscape.org/) -->

<svg
   xmlns:dc="http://purl.org/dc/elements/1.1/"
   xmlns:cc="http://creativecommons.org/ns#"
   xmlns:rdf="http://www.w3.org/1999/02/22-rdf-syntax-ns#"
   xmlns:svg="http://www.w3.org/2000/svg"
   xmlns="http://www.w3.org/2000/svg"
   xmlns:sodipodi="http://sodipodi.sourceforge.net/DTD/sodipodi-0.dtd"
   xmlns:inkscape="http://www.inkscape.org/namespaces/inkscape"
   height="128"
   width="128"
   version="1.1"
   id="svg487"
   sodipodi:docname="polarsmith.svg"
   inkscape:version="0.92.3 (2405546, 2018-03-11)">
  <metadata
     id="metadata491">
    <rdf:RDF>
      <cc:Work
         rdf:about="">
        <dc:format>image/svg+xml</dc:format>
        <dc:type
           rdf:resource="http://purl.org/dc/dcmitype/StillImage" />
        <dc:title />
      </cc:Work>
    </rdf:RDF>
  </metadata>
  <sodipodi:namedview
     pagecolor="#ffffff"
     bordercolor="#666666"
     borderopacity="1"
     objecttolerance="10"
     gridtolerance="10"
     guidetolerance="10"
     inkscape:pageopacity="0"
     inkscape:pageshadow="2"
     inkscape:window-width="1920"
     inkscape:window-height="1050"
     id="namedview489"
     showgrid="true"
     inkscape:zoom="6.2421875"
     inkscape:cx="30.239546"
     inkscape:cy="60.197128"
     inkscape:window-x="1920"
     inkscape:window-y="0"
     inkscape:window-maximized="1"
     inkscape:current-layer="svg487">
    <inkscape:grid
       type="xygrid"
       id="grid1504" />
  </sodipodi:namedview>
  <defs
     id="defs24">
    <marker
       inkscape:stockid="Arrow1Lend"
       orient="auto"
       refY="0.0"
       refX="0.0"
       id="Arrow1Lend"
       style="overflow:visible;"
       inkscape:isstock="true">
      <path
         id="path855"
         d="M 0.0,0.0 L 5.0,-5.0 L -12.5,0.0 L 5.0,5.0 L 0.0,0.0 z "
         style="fill-rule:evenodd;stroke:#000000;stroke-width:1pt;stroke-opacity:1;fill:#000000;fill-opacity:1"
         transform="scale(0.8) rotate(180) translate(12.5,0)" />
    </marker>
    <linearGradient
       id="linearGradient7843"
       gradientTransform="matrix(.121457 0 0 .1756605 195.18891 503.66043)"
       gradientUnits="userSpaceOnUse"
       x1="-333.0289"
       x2="-333.0289"
       y1="-1473.6504"
       y2="-776.61371">
      <stop
         offset="0"
         stop-color="#fff"
         id="stop2" />
      <stop
         offset=".49140647"
         stop-color="#fff"
         id="stop4" />
      <stop
         offset="1"
         stop-color="#dcdcdc"
         id="stop6" />
    </linearGradient>
    <linearGradient
       id="linearGradient7912"
       gradientTransform="matrix(.121457 0 0 .1756605 75.745932 148.34634)"
       gradientUnits="userSpaceOnUse"
       x1="399.77466"
       x2="399.77466"
       y1="727.07941"
       y2="480.60214">
      <stop
         offset="0"
         stop-color="#cbcbcd"
         id="stop9" />
      <stop
         offset=".5"
         stop-color="#e0e0e2"
         id="stop11" />
      <stop
         offset="1"
         stop-color="#f2f2f2"
         id="stop13" />
    </linearGradient>
    <linearGradient
       id="linearGradient12912"
       gradientUnits="userSpaceOnUse"
       x1="1055.3002"
       x2="1055.3002"
       y1="-468.66934"
       y2="-481.76657">
      <stop
         offset="0"
         stop-color="#6f6f6f"
         id="stop16" />
      <stop
         offset="1"
         stop-color="#fff"
         id="stop18" />
    </linearGradient>
    <filter
       id="filter4400">
      <feGaussianBlur
         stdDeviation="1.177891"
         id="feGaussianBlur21" />
    </filter>
  </defs>
  <rect
     style="fill:#ffffff;fill-opacity:1;stroke:#ffffff;stroke-width:1.0;stroke-linecap:square;stroke-linejoin:round;stroke-miterlimit:4;stroke-dasharray:none;stroke-dashoffset:0;stroke-opacity:1;paint-order:stroke fill markers"
     id="rect915"
     width="127.0"
     height="127.0"
     x="0.50"
     y="0.50" />
  <path
     style="fill:none;fill-opacity:1;stroke:#000000;stroke-width:3;stroke-linecap:square;stroke-linejoin:round;stroke-miterlimit:4;stroke-dasharray:none;stroke-dashoffset:0;stroke-opacity:1;paint-order:stroke fill markers"
     id="path841"
     sodipodi:type="arc"
     sodipodi:cx="65"
     sodipodi:cy="63"
     sodipodi:rx="60"
     sodipodi:ry="60"
     sodipodi:start="4.6695935"
     sodipodi:end="4.6674817"
     sodipodi:open="true"
     d="M 62.433055,3.0549352 A 60,60 0 0 1 124.9437,60.401407 60,60 0 0 1 67.63024,122.94232 60,60 0 0 1 5.0590761,65.661886 60,60 0 0 1 62.306469,3.0604897" />
  <path
     style="fill:none;stroke:#000000;stroke-width:3;stroke-linecap:butt;stroke-linejoin:miter;stroke-opacity:1;stroke-miterlimit:4;stroke-dasharray:none"
     d="M 5,63 H 125"
     id="path843"
     inkscape:connector-curvature="0" />
  <path
     style="fill:none;stroke:#000000;stroke-width:3;stroke-linecap:butt;stroke-linejoin:miter;stroke-miterlimit:4;stroke-dasharray:none;stroke-opacity:1"
     d="M 65,3 V 63"
     id="path845"
     inkscape:connector-curvature="0"
     sodipodi:nodetypes="cc" />
  <path
     style="fill:none;fill-opacity:1;stroke:#000000;stroke-width:3;stroke-linecap:square;stroke-linejoin:round;stroke-miterlimit:4;stroke-dasharray:none;stroke-dashoffset:0;stroke-opacity:1;paint-order:stroke fill markers"
     id="path866"
     sodipodi:type="arc"
     sodipodi:cx="65"
     sodipodi:cy="63"
     sodipodi:rx="30"
     sodipodi:ry="30"
     sodipodi:start="3.1474748"
     sodipodi:end="6.2720555"
     d="M 35.000519,62.823537 A 30,30 0 0 1 64.921285,33.000103 30,30 0 0 1 94.998142,62.666113"
     sodipodi:open="true" />
  <path
     style="fill:none;stroke:#000000;stroke-width:3;stroke-linecap:butt;stroke-linejoin:miter;stroke-opacity:1;stroke-miterlimit:4;stroke-dasharray:none"
     d="M 125,63 C 125,63 99.587511,72.539675 82.951189,91.377471 68.271248,108 65,123 65,123 v 0"
     id="path906"
     inkscape:connector-curvature="0"
     sodipodi:nodetypes="cscc" />
  <path
     style="fill:none;stroke:#000000;stroke-width:3;stroke-linecap:butt;stroke-linejoin:miter;stroke-opacity:1;stroke-miterlimit:4;stroke-dasharray:none"
     d="M 125,63 C 125,63 78.108423,63.699225 49.054211,83.349613 20,103 20,103 20,103 v 0 0 0"
     id="path908"
     inkscape:connector-curvature="0" />
  <path
     style="fill:none;fill-opacity:1;stroke:#000000;stroke-width:3;stroke-linecap:square;stroke-linejoin:round;stroke-miterlimit:4;stroke-dasharray:none;stroke-dashoffset:0;stroke-opacity:1;paint-order:stroke fill markers"
     id="path910"
     sodipodi:type="arc"
     sodipodi:cx="95"
     sodipodi:cy="65.5"
     sodipodi:rx="30"
     sodipodi:ry="32.5"
     sodipodi:start="6.2510533"
     sodipodi:end="3.1993008"
     sodipodi:open="true"
     d="M 124.98451,64.455889 A 30,32.5 0 0 1 110.05674,93.610247 30,32.5 0 0 1 79.284609,93.183915 30,32.5 0 0 1 65.04994,63.625526" />
  <path
     style="fill:none;fill-opacity:1;stroke:#000000;stroke-width:3;stroke-linecap:square;stroke-linejoin:round;stroke-miterlimit:4;stroke-dasharray:none;stroke-dashoffset:0;stroke-opacity:1;paint-order:stroke fill markers"
     id="path912"
     sodipodi:type="arc"
     sodipodi:cx="80"
     sodipodi:cy="65.5"
     sodipodi:rx="45"
     sodipodi:ry="42.5"
     sodipodi:start="6.2510538"
     sodipodi:end="3.1992932"
     sodipodi:open="true"
     d="M 124.97677,64.134646 A 45,42.5 0 0 1 102.5852,102.25951 45,42.5 0 0 1 56.427102,101.70215 45,42.5 0 0 1 35.07489,63.049087" />
</svg>

<svg xmlns="http://www.w3.org/2000/svg" width="128" height="128"><path d="M.5.5h127v127H.5z" style="fill:#fff;fill-opacity:1;stroke:#fff;stroke-width:1;stroke-linecap:square;stroke-linejoin:round;stroke-miterlimit:4;stroke-dasharray:none;stroke-dashoffset:0;stroke-opacity:1;paint-order:stroke fill markers"/><path d="M62.433 3.055a60 60 0 0 1 62.51 57.346 60 60 0 0 1-57.313 62.541 60 60 0 0 1-62.57-57.28A60 60 0 0 1 62.305 3.06" style="fill:none;fill-opacity:1;stroke:#000;stroke-width:3;stroke-linecap:square;stroke-linejoin:round;stroke-miterlimit:4;stroke-dasharray:none;stroke-dashoffset:0;stroke-opacity:1;paint-order:stroke fill markers"/><path d="M5 63h120" style="fill:none;stroke:#000;stroke-width:3;stroke-linecap:butt;stroke-linejoin:miter;stroke-opacity:1;stroke-miterlimit:4;stroke-dasharray:none"/><path d="M65 3v60" style="fill:none;stroke:#000;stroke-width:3;stroke-linecap:butt;stroke-linejoin:miter;stroke-miterlimit:4;stroke-dasharray:none;stroke-opacity:1"/><path d="M35 62.824A30 30 0 0 1 64.922 33a30 30 0 0 1 30.077 29.666" style="fill:none;fill-opacity:1;stroke:#000;stroke-width:3;stroke-linecap:square;stroke-linejoin:round;stroke-miterlimit:4;stroke-dasharray:none;stroke-dashoffset:0;stroke-opacity:1;paint-order:stroke fill markers"/><path d="M125 63s-25.412 9.54-42.049 28.377C68.271 108 65 123 65 123" style="fill:none;stroke:#000;stroke-width:3;stroke-linecap:butt;stroke-linejoin:miter;stroke-opacity:1;stroke-miterlimit:4;stroke-dasharray:none"/><path d="M125 63s-46.892.7-75.946 20.35L20 103" style="fill:none;stroke:#000;stroke-width:3;stroke-linecap:butt;stroke-linejoin:miter;stroke-opacity:1;stroke-miterlimit:4;stroke-dasharray:none"/><path d="M124.985 64.456a30 32.5 0 0 1-14.928 29.154 30 32.5 0 0 1-30.772-.426A30 32.5 0 0 1 65.05 63.626" style="fill:none;fill-opacity:1;stroke:#000;stroke-width:3;stroke-linecap:square;stroke-linejoin:round;stroke-miterlimit:4;stroke-dasharray:none;stroke-dashoffset:0;stroke-opacity:1;paint-order:stroke fill markers"/><path d="M124.977 64.135a45 42.5 0 0 1-22.392 38.125 45 42.5 0 0 1-46.158-.558A45 42.5 0 0 1 35.075 63.05" style="fill:none;fill-opacity:1;stroke:#000;stroke-width:3;stroke-linecap:square;stroke-linejoin:round;stroke-miterlimit:4;stroke-dasharray:none;stroke-dashoffset:0;stroke-opacity:1;paint-order:stroke fill markers"/></svg>
